X:1
T:Title
%%score { ( 1 3 ) | 2 }
L:1/8
Q:1/4=94
M:2/4
K:Eb
V:1 treble nm="Grand Piano"
V:3 treble 
V:2 bass 
V:1
 [G,E]2 [A,EF]2 | [B,EG]2 [B,GB]2 | [B,FA]2 [B,EG]2 | [B,DF]4 | [B,DF]2 [EG]2 | [A,EA]2 [A,CF]2 | %6
w: Aldine~S.~Kieffer *||||||
 z2 D2 | E4 | B2 B2 | B2 G2 | [B,FA]2 [B,EG]2 | [B,DF]4 | [G,B,E]2 [G,B,E]2 | [A,E]2 [CEA]2 | %14
w: ||||||||
 [B,EG]2 [A,DF]2 | [G,E]4 |] %16
w: ||
V:2
 E,2 E,2 | E,2 E,2 | D,2 E,2 | B,,4 | B,,2 B,2 | C,2 A,,2 | [B,,G,B,]2 .[B,,F,B,]2 | [E,G,B,]4 | %8
 [E,G,E]2 [F,A,D]2 | [G,B,E]2 [E,B,E]2 | D,2 E,2 | B,,4 | E,2 _D,2 | C,2 A,,2 | B,,2 B,,2 | E,4 |] %16
V:3
 x4 | x4 | x4 | x4 | x4 | x4 | E2 z A, | x4 | x4 | x4 | x4 | x4 | x4 | x4 | x4 | x4 |] %16

